X:1
T:Title
%%score { ( 1 4 ) | ( 2 3 ) }
L:1/8
M:3/4
K:Ab
V:1 treble nm="Grand Piano"
V:4 treble 
V:2 bass 
V:3 bass 
V:1
 z2 z2[Q:1/4=90] [CE]>[CF] | [CE]2 [CA]2 [DE]>[DF] | [DE]2 [DB]2 [A,E]>[A,EF] | %3
 [A,E]2 [Ec]2 [DB]>[DG] |[M:2/4] [DF]2 [CE]2 |[M:1/4] [CE]>[CF] |[M:3/4] [CE]2 [CA]2 [Ec]>[_Ge] | %7
 [_Ge]2 [Fd]2 [FA]>[=EB] | c2 E2 B>[CA] |[M:2/4] [CA]4 |[M:1/4] [Ac]>[Ac] | %11
[M:3/4] [Ac]2 (3cBA (3AG[CFA] | [C=EG]2 C2 C>E | F2 A2 (3[=D-A][B,DG][DF] |[M:2/4] E4 | %15
[M:1/4] [CE]>[CF] |[M:3/4] [CE]2 [CA]2 [Ec]>[_Ge] | [_Ge]2 [Fd]2 [FA]>[=EB] | c2 E2 B>[CA] | %19
[M:2/4] [CA]4 |] %20
V:2
 z2 z2 [A,,A,]>[A,,A,] | [A,,A,]2 [A,,E,]2 [B,,G,]>[B,,G,] | [B,,G,]2 [B,,G,]2 C,>C, | %3
 C,2 [A,,A,]2 [E,G,]>[E,B,] |[M:2/4] [A,,A,]4 |[M:1/4] [A,,A,]>[A,,A,] | %6
[M:3/4] [A,,A,]2 [A,,A,]2 [A,,A,]>[C,A,] | [D,A,]2 [D,A,]2 [D,A,]>[D,A,] | %8
 [E,A,E]2 [E,A,C]2 [E,G,D]>[A,,A,] |[M:2/4] [A,,A,]4 |[M:1/4] [F,A,]>[F,A,] | %11
[M:3/4] z2[K:treble] (3A[B,G][K:bass][F,CF] (3[F,-C-F][F,C=E]F, | C,2 C,2 C,>[C,B,C] | %13
 [F,A,C]2 [F,A,C]2 (3[B,,-F,]B,,[B,,A,] |[M:2/4] [E,G,]4 |[M:1/4] [A,,A,]>[A,,A,] | %16
[M:3/4] [A,,A,]2 [A,,A,]2 [A,,A,]>[C,A,] | [D,A,]2 [D,A,]2 [D,A,]>[D,A,] | %18
 [E,A,E]2 [E,A,C]2 [E,G,D]>[A,,A,] |[M:2/4] [A,,A,]4 |] %20
V:3
 x6 | x6 | x6 | x6 |[M:2/4] x4 |[M:1/4] x2 |[M:3/4] x6 | x6 | x6 |[M:2/4] x4 |[M:1/4] x2 | %11
[M:3/4] .[F,A,]4[K:treble][K:bass] z2 | x6 | x6 |[M:2/4] x4 |[M:1/4] x2 |[M:3/4] x6 | x6 | x6 | %19
[M:2/4] x4 |] %20
V:4
 x6 | x6 | x6 | x6 |[M:2/4] x4 |[M:1/4] x2 |[M:3/4] x6 | x6 | x6 |[M:2/4] x4 |[M:1/4] x2 | %11
[M:3/4] x6 | x6 | x6 |[M:2/4] z2 D2 |[M:1/4] x2 |[M:3/4] x6 | x6 | x6 |[M:2/4] x4 |] %20

